X:427
T: Liuliu Shange
N: C2045
O: China,Anhui
S: III, 534]
R: Haozi]
M: 2/4
L: 1/16
K: F
c2cAd2AG | F4F4 |
F4F4
c2c2d2cA | c4c4 |
c4c4
c'c'c'c'c'4 | c'c'c'c'c'c'c'2 |
f2fdc2d2 | c2c2A2G2 | c2G2c2AG | F3GF4 |
F3GF4

@@@ Tune index: 6982
